X:744
T:Mrs. McGee
R:Jig
O:Scotland
A:Ayr
C:John Riddell
S:Jerry Holland's collection of fiddle tunes
B:Jerry Holland's collection of fiddle tunes
Z:Transcription, chords:Mike Long
M:6/8
L:1/8
K:G
D|\
"G"G3 B3|dBG Ge=f|"F"cA=F F2A|c2d cBA|\
"G"G3 B3|dBG GBd|"F"cBc "C"edc|"G"BGG G2:|
D|\
"G"GBd gab|"(D)"agf "G"g2d|"F"cA=F F2A|c2d cBA|\
"G"GBd gab|"(D)"agf "G"g2B|"F"cBc "C"edc|"G"BGG G2||
D|\
"G"GBd gab|"(D)"agf "G"g2d|"F"cA=F F2A|"(C)"c2d cga|\
"G"bgb "D"afa|"G"gfe dcB|"F"~cBc "C"edc|"G"BGG G2|]
